X:248
T:The Red Crow
Z:robin.beech@mcgill.ca
R:reel
M:4/4
L:1/8
K:Ador
A,2EA, B,G,G,B, | A,2EG FDEG | AGED EA,A,D | ECDC B,G,G,B, | A,2EA, B,G,G,B, |
A,2EG FDEG |1 AGED EA,A,C | DB,G,B, A,2G,B, :|2 AGED EA,A,C |DB,G,B, A,2 A2 |:
A2eA ceAc | eAce dcBA | G2dc BdGB | dGBd edcB |1 A2eA ceAc | eAcb ageg |
age^c d=fed | cABG A2 AG :|2 A2aA gAfA | A2cA BAGB | cABG AGED | ECDB, CA,B,G, |]
